**kern
*clefG2
*k[f#c#]
*M2/4
*D:
=545
16aa
16dd
16ee
16dd
16aa
16dd
16ee
16dd
=546
16bb
16dd
16ee
16dd
16bb
16dd
16ee
16dd
=547
16ccc#
16gg
16aa
16gg
16ccc#
16gg
16aa
16gg
=548
16ddd
16ff#
16gg
16ff#
16ddd
16ff#
16gg
16ff#
=549
16aa
16cc#
16dd
16cc#
16aa
16cc#
16dd
16cc#
=550
16aa
16a
16b
16a
16aa
16a
16b
16a
=551
16aa
16a
16b
16a
16aa
16a
16b
16a
=552
8aa'
(8a
8b
8a)
=553
8aa'
(8a
8b
8a)
=554
8aa'
(8a
8b
8a)
=555
8aa'
(8a
8b
8a)
=556
(4aa'
4a'
=557
4b'
4a')
=558
2r
=559
2r
=560
2aa
=561
2a
=562
2b
=563
2a
=564
2r
=565
2r
=566
2r
=567
2r
=568
[2aa
=569
2aa]
=570
[2a
=571
2a]
=572
[2b
=573
2b]
=574
[2a
=575
2a]
=576
2r
=577
2r
=578
2r
=579
2r
=580
[2ddd
=581
2ddd_
=582
2ddd_
=583
2ddd]
=584
2ddd;
==
*-
